src/icons/svg/someClass.svg

<?xml version="1.0" standalone="no"?><!DOCTYPE svg PUBLIC "-//W3C//DTD SVG 1.1//EN" "http://www.w3.org/Graphics/SVG/1.1/DTD/svg11.dtd"><svg t="1545211044507" class="icon" style="" viewBox="0 0 1024 1024" version="1.1" xmlns="http://www.w3.org/2000/svg" p-id="2198" xmlns:xlink="http://www.w3.org/1999/xlink" width="200" height="200"><defs><style type="text/css"></style></defs><path d="M401.269241 16.445242 67.941212 16.445242c-37.31468 0-67.565145 30.103462-67.565145 67.229857l0 335.252161c0 37.132436 30.249458 67.229857 67.565145 67.229857L401.269241 486.157117c37.31468 0 67.574207-30.097421 67.574207-67.229857L468.843448 83.675099C468.843448 46.548704 438.583921 16.445242 401.269241 16.445242zM940.623439 16.445242 607.305479 16.445242c-37.31468 0-67.571187 30.103462-67.571187 67.229857l0 335.252161c0 37.132436 30.256507 67.229857 67.571187 67.229857l333.31796 0c37.324749 0 67.574207-30.097421 67.574207-67.229857L1008.197646 83.675099C1008.197646 46.548704 977.948187 16.445242 940.623439 16.445242zM401.269241 554.288125 67.941212 554.288125c-37.31468 0-67.565145 30.106483-67.565145 67.236905l0 335.249141c0 37.129416 30.249458 67.226836 67.565145 67.226836L401.269241 1024.001007c37.31468 0 67.574207-30.097421 67.574207-67.226836L468.843448 621.524023C468.843448 584.394607 438.583921 554.288125 401.269241 554.288125zM940.623439 554.288125 607.305479 554.288125c-37.31468 0-67.571187 30.106483-67.571187 67.236905l0 335.249141c0 37.129416 30.256507 67.226836 67.571187 67.226836l333.31796 0c37.324749 0 67.574207-30.097421 67.574207-67.226836L1008.197646 621.524023C1008.197646 584.394607 977.948187 554.288125 940.623439 554.288125z" p-id="2199"></path></svg>

<svg class="icon" viewBox="0 0 1024 1024" xmlns="http://www.w3.org/2000/svg" width="200" height="200"><defs><style/></defs><path d="M401.27 16.445H67.94C30.627 16.445.376 46.55.376 83.675v335.252c0 37.133 30.25 67.23 67.565 67.23H401.27c37.315 0 67.574-30.097 67.574-67.23V83.675c0-37.126-30.26-67.23-67.574-67.23zm539.353 0H607.305c-37.314 0-67.57 30.104-67.57 67.23v335.252c0 37.133 30.256 67.23 67.57 67.23h333.318c37.325 0 67.575-30.097 67.575-67.23V83.675c0-37.126-30.25-67.23-67.575-67.23zM401.27 554.288H67.941c-37.314 0-67.565 30.107-67.565 67.237v335.25c0 37.129 30.25 67.226 67.565 67.226H401.27c37.315 0 67.574-30.097 67.574-67.227v-335.25c0-37.13-30.26-67.236-67.574-67.236zm539.354 0H607.305c-37.314 0-67.57 30.107-67.57 67.237v335.25c0 37.129 30.256 67.226 67.57 67.226h333.318c37.325 0 67.575-30.097 67.575-67.227v-335.25c0-37.13-30.25-67.236-67.575-67.236z"/></svg>
